public/assets/badges/eersteComment.svg

<svg fill="none" height="191" viewBox="0 0 191 191" width="191" xmlns="http://www.w3.org/2000/svg" xmlns:xlink="http://www.w3.org/1999/xlink"><filter id="a" color-interpolation-filters="sRGB" filterUnits="userSpaceOnUse" height="160.375" width="120.924" x="36" y="18"><feFlood flood-opacity="0" result="BackgroundImageFix"/><feColorMatrix in="SourceAlpha" type="matrix" values="0 0 0 0 0 0 0 0 0 0 0 0 0 0 0 0 0 0 127 0"/><feOffset dy="4"/><feColorMatrix type="matrix" values="0 0 0 0 0 0 0 0 0 0 0 0 0 0 0 0 0 0 0.15 0"/><feBlend in2="BackgroundImageFix" mode="normal" result="effect1_dropShadow"/><feBlend in="SourceGraphic" in2="effect1_dropShadow" mode="normal" result="shape"/></filter><filter id="b" color-interpolation-filters="sRGB" filterUnits="userSpaceOnUse" height="54.2282" width="77.011" x="57.957" y="62.9419"><feFlood flood-opacity="0" result="BackgroundImageFix"/><feColorMatrix in="SourceAlpha" type="matrix" values="0 0 0 0 0 0 0 0 0 0 0 0 0 0 0 0 0 0 127 0"/><feOffset dy="1"/><feColorMatrix type="matrix" values="0 0 0 0 0 0 0 0 0 0 0 0 0 0 0 0 0 0 0.15 0"/><feBlend in2="BackgroundImageFix" mode="normal" result="effect1_dropShadow"/><feBlend in="SourceGraphic" in2="effect1_dropShadow" mode="normal" result="shape"/></filter><clipPath id="c"><path d="m57.957 62.9419h77.011v53.2282h-77.011z"/></clipPath><g filter="url(#a)"><path d="m36 28c0-5.5228 4.4772-10 10-10h100.924c5.523 0 10 4.4772 10 10v86.375c0 33.137-27.325 60-60.4621 60-33.1371 0-60.4619-26.863-60.4619-60z" fill="#e62336"/><path d="m46 21h100.924c3.866 0 7 3.134 7 7v86.375c0 31.45-25.952 57-57.4621 57-31.5103 0-57.4619-25.55-57.4619-57v-86.375c0-3.866 3.134-7 7-7z" stroke="#eee" stroke-width="6"/></g><g filter="url(#b)"><g clip-path="url(#c)"><path d="m125 106.408-.759-.284-.654.479c-6.733 4.938-16.367 8.067-27.1245 8.067-10.3681 0-19.6884-2.907-26.3754-7.53-6.6932-4.627-10.6301-10.8685-10.6301-17.584 0-6.7151 3.9395-12.9571 10.6345-17.584 6.6888-4.6227 16.0091-7.5301 26.371-7.5301 10.3615 0 19.6825 2.9074 26.3715 7.5301 6.695 4.6269 10.634 10.8689 10.634 17.584 0 4.304-1.619 8.3862-4.507 11.982l-.661.823.551.9c1.258 2.054 1.534 4.402 1.421 6.443-1.505-1.622-3.567-2.659-5.272-3.296z" fill="#f7f7f7" stroke="#ee2236" stroke-width="3"/><path d="m104.586 66.585-18.7954 45.425c-13.9421-2.597-24.8922-12.0493-24.8922-22.0693 0-12.01 13.4927-23.2248 34.1119-23.9946 3.1058-.1414 5.6397-.0002 9.5757.6389z" fill="#fff"/></g><g fill="#e62336"><circle cx="76.3248" cy="89.556" r="4.35311"/><circle cx="96.3555" cy="89.5557" r="4.35311"/><circle cx="116.387" cy="89.5557" r="4.35311"/></g></g></svg>

<svg width="191" height="191" viewBox="0 0 191 191" fill="none" xmlns="http://www.w3.org/2000/svg">
<g filter="url(#filter0_d)">
<path d="M36 28C36 22.4772 40.4772 18 46 18H146.924C152.447 18 156.924 22.4772 156.924 28V114.375C156.924 147.512 129.599 174.375 96.4619 174.375V174.375C63.3248 174.375 36 147.512 36 114.375V28Z" fill="#E62336"/>
<path d="M46 21H146.924C150.79 21 153.924 24.134 153.924 28V114.375C153.924 145.825 127.972 171.375 96.4619 171.375C64.9516 171.375 39 145.825 39 114.375V28C39 24.134 42.134 21 46 21Z" stroke="#EEEEEE" stroke-width="6"/>
</g>
<g filter="url(#filter1_d)">
<g clip-path="url(#clip0)">
<path d="M125 106.408L124.241 106.124L123.587 106.603C116.854 111.541 107.22 114.67 96.4625 114.67C86.0944 114.67 76.7741 111.763 70.0871 107.14C63.3939 102.513 59.457 96.2715 59.457 89.556C59.457 82.8409 63.3965 76.5989 70.0915 71.972C76.7803 67.3493 86.1006 64.4419 96.4625 64.4419C106.824 64.4419 116.145 67.3493 122.834 71.972C129.529 76.5989 133.468 82.8409 133.468 89.556C133.468 93.86 131.849 97.9422 128.961 101.538L128.3 102.361L128.851 103.261C130.109 105.315 130.385 107.663 130.272 109.704C128.767 108.082 126.705 107.045 125 106.408Z" fill="#F7F7F7" stroke="#EE2236" stroke-width="3"/>
<path d="M104.586 66.585L85.7906 112.01C71.8485 109.413 60.8984 99.9607 60.8984 89.9407C60.8984 77.9307 74.3911 66.7159 95.0103 65.9461C98.1161 65.8047 100.65 65.9459 104.586 66.585Z" fill="white"/>
</g>
<circle cx="76.3248" cy="89.556" r="4.35311" fill="#E62336"/>
<circle cx="96.3555" cy="89.5557" r="4.35311" fill="#E62336"/>
<circle cx="116.387" cy="89.5557" r="4.35311" fill="#E62336"/>
</g>
<defs>
<filter id="filter0_d" x="36" y="18" width="120.924" height="160.375" filterUnits="userSpaceOnUse" color-interpolation-filters="sRGB">
<feFlood flood-opacity="0" result="BackgroundImageFix"/>
<feColorMatrix in="SourceAlpha" type="matrix" values="0 0 0 0 0 0 0 0 0 0 0 0 0 0 0 0 0 0 127 0"/>
<feOffset dy="4"/>
<feColorMatrix type="matrix" values="0 0 0 0 0 0 0 0 0 0 0 0 0 0 0 0 0 0 0.15 0"/>
<feBlend mode="normal" in2="BackgroundImageFix" result="effect1_dropShadow"/>
<feBlend mode="normal" in="SourceGraphic" in2="effect1_dropShadow" result="shape"/>
</filter>
<filter id="filter1_d" x="57.957" y="62.9419" width="77.011" height="54.2282" filterUnits="userSpaceOnUse" color-interpolation-filters="sRGB">
<feFlood flood-opacity="0" result="BackgroundImageFix"/>
<feColorMatrix in="SourceAlpha" type="matrix" values="0 0 0 0 0 0 0 0 0 0 0 0 0 0 0 0 0 0 127 0"/>
<feOffset dy="1"/>
<feColorMatrix type="matrix" values="0 0 0 0 0 0 0 0 0 0 0 0 0 0 0 0 0 0 0.15 0"/>
<feBlend mode="normal" in2="BackgroundImageFix" result="effect1_dropShadow"/>
<feBlend mode="normal" in="SourceGraphic" in2="effect1_dropShadow" result="shape"/>
</filter>
<clipPath id="clip0">
<rect width="77.011" height="53.2282" fill="white" transform="translate(57.957 62.9419)"/>
</clipPath>
</defs>
</svg>
